packages/components/src/components/icon/common/ic-mobile-outline.svg

<svg width="16" height="16" viewBox="0 0 16 16" fill="none" xmlns="http://www.w3.org/2000/svg">
<path fill-rule="evenodd" clip-rule="evenodd" d="M5.5 0C4.39543 0 3.5 0.895431 3.5 2V14C3.5 15.1046 4.39543 16 5.5 16H10.5C11.6046 16 12.5 15.1046 12.5 14V2C12.5 0.895431 11.6046 0 10.5 0H5.5ZM4.5 2C4.5 1.44772 4.94772 1 5.5 1H6C6 1.27614 6.22386 1.5 6.5 1.5H9.5C9.77614 1.5 10 1.27614 10 1H10.5C11.0523 1 11.5 1.44772 11.5 2V14C11.5 14.5523 11.0523 15 10.5 15H5.5C4.94772 15 4.5 14.5523 4.5 14V2Z" fill="white"/>
</svg>

<svg width="16" height="16" viewBox="0 0 16 16" fill="var(--fill-color1, white)" xmlns="http://www.w3.org/2000/svg"><path fill-rule="evenodd" clip-rule="evenodd" d="M5.5 0a2 2 0 0 0-2 2v12a2 2 0 0 0 2 2h5a2 2 0 0 0 2-2V2a2 2 0 0 0-2-2zm-1 2a1 1 0 0 1 1-1H6a.5.5 0 0 0 .5.5h3A.5.5 0 0 0 10 1h.5a1 1 0 0 1 1 1v12a1 1 0 0 1-1 1h-5a1 1 0 0 1-1-1z"/></svg>
